!! 00010] TT[TB
!! Eigene Aufnahme
!!!OTL: Zana ha er ma The black horse zmon
!!!ARE: Neimeng
!! Ethnic Group: Menggu
!! MM, S. 143
!!!SCT: C0536
!!!YEM: Copyright 1995, estate of Helmut Schaffrath.
**kern
*ICvox
*Ivox
*M2/4
*k[]
*C:
{8g
16g
16e
8g
8a
=1
4.cc
8dd
=2
8.cc
16dd
16ee
16dd
16ee
16gg
=3
2g}
=4
{8cc
16cc
16dd
8e
16d
16e
=5
4.g
8a
=6
8.d
16g
8e
8d
=7
2c}
=8
{8g
16g
16e
8g
8a
=9
4.cc
8dd
=10
8.cc
16dd
16ee
16dd
16ee
16gg
=11
2g}
=12
{8.g
16a
8cc
8e
=13
4.d
8e
=14
8.d
16g
8e
8d
=15
2c}
==
!!!AGN: NN
!! Saenger: Chao Lun Batou, der das Buch nur zum Nachschlagen
!!    benutzte und ansonsten auswendig sang. Da er aus dem Osten der
!!    Neimeng kommt, kennt er nicht so viele Lieder des Westens.
!!    Alle Lieder wurden mit erkaelteter, halber Stimme in meinem
!!    Zimmer gesungen. FOTO VORHANDEN (DIAS)   31.3.87  VARIANTE
!!!ONB: ESAC (Essen Associative Code) Database: CHINA
!!!AMT: simple duple
!!!AIN: vox
!!!EED: Helmut Schaffrath
!!!EEV: 1.0
*-
